X:1
T:Title
%%score { ( 1 3 4 ) | 2 }
L:1/8
M:2/4
K:G
V:1 treble nm="Grand Piano"
V:3 treble 
V:4 treble 
V:2 bass 
V:1
 z2 z[Q:1/4=85] B | BD DG | GF Fc | [Fc]E FD |[M:3/8] D B2 |[M:1/8] B |[M:2/4] BD DG | GF Fc | %8
 [Fc]E FD | B G3 | d2 G2 | z B3 | [FA][FA] [GB]/[DA]/[DG]/[FA]/ | Bd de | d2 G2 | z B3 | %16
 [FA][Ac] [GB]A |[M:3/8] G3 |] %18
V:2
 z2 z [G,D] | [G,D][G,B,] [G,B,][G,B,D] | [A,CD][A,CD] [A,CD][A,DF] | %3
 [D,A,][D,A,C] [D,A,D][D,F,C] |[M:3/8] [G,B,] [G,D]2 |[M:1/8] [G,D] | %6
[M:2/4] [G,D][G,B,] [G,B,][K:treble][G,B,D] | [A,CD][A,CD] [A,CD][A,DF] | %8
 [D,A,][D,A,C] [D,A,D][D,F,C] | [G,D] [G,B,]3 | [G,B,G][G,B,] [G,B,D][G,C] | %11
 [G,DG][G,DG][K:bass] [G,D]2 | [D,D][D,D] [D,D]/[D,C]/[D,B,]/[D,D]/ | [G,DG][G,B,G] [G,B,G][G,CG] | %14
 [G,B,G][G,B,] [G,B,D][G,C] | [G,DG][G,DG][K:bass] [G,D]2 | [D,D][D,D] [D,D][D,CD] | %17
[M:3/8] [G,B,D]3 |] %18
V:3
 x4 | x4 | x4 | x4 |[M:3/8] x3 |[M:1/8] x |[M:2/4] x4 | x4 | x4 | x4 | z G z z/ A/ | .B2 G2 | x4 | %13
 x4 | z G z z/ A/ | .B2 G2 | x4 |[M:3/8] x3 |] %18
V:4
 x4 | x4 | x4 | x4 |[M:3/8] x3 |[M:1/8] x |[M:2/4] x4 | x4 | x4 | x4 | z2 z D | x4 | x4 | x4 | %14
 z2 z D | x4 | x4 |[M:3/8] x3 |] %18

